icons/plexis/48/eintopf.svg

<svg viewBox="0 0 48 48" xmlns="http://www.w3.org/2000/svg" xmlns:xlink="http://www.w3.org/1999/xlink">
  <linearGradient id="a" gradientTransform="matrix(0 -1 1 0 -.0000015 47.999998)" gradientUnits="userSpaceOnUse" x1="1" x2="47">
    <stop offset="0" stop-color="#d0ecd7"/>
    <stop offset="1" stop-color="#def2e3"/>
  </linearGradient>
  <path d="m47 24c0 22.703-.297 23-23 23-22.703 0-23-.297-23-23 0-22.703.297-23 23-23 22.703 0 23 .297 23 23z" fill="url(#a)"/>
  <path d="m28 11c .441 1.667-6.279 2.222-3 5-1.765-2.222 5.787-3 3-5zm-3 5a11 3 0 0 0-11 3 11 3 0 0 0  1.01 1.246 13 9 0 0 0-3.01 5.754 13 9 0 0 0  2.75 5.52c-.424 1.017-.75 2.187-.75 3.48 1.312 0 2.995-.579 4.486-1.225a13 9 0 0 0 6.514 1.225 13 9 0 0 0  6.518-1.223c1.491.645 3.171 1.223 4.482 1.223 0-1.29-.325-2.458-.748-3.473a13 9 0 0 0 2.748-5.527 13 9 0 0 0-3.01-5.75 11 3 0 0 0  1.014-1.25 11 3 0 0 0-6.484-2.732c2.587-1.54 6.266-2.863 3.498-5.268.605 1.972-4.678 3.085-6.439 5.03a11 3 0 0 0-1.574-.033m0 1a9 2 0 0 1 1.029.014c-.153.821.352 1.788 1.992 2.986-1.066-1.158-.692-2.061.238-2.861a9 2 0 0 1 5.74 1.861 9 2 0 0 1-9 2 9 2 0 0 1-9-2 9 2 0 0 1  9-2z" opacity=".1"/>
  <path d="m24 15a11 3 0 0 0-11 3 11 3 0 0 0  1.01 1.246 13 9 0 0 0-3.01 5.754 13 9 0 0 0  2.75 5.52c-.424 1.016-.75 2.187-.75 3.48 1.312 0 2.995-.579 4.486-1.225a13 9 0 0 0 6.514 1.225 13 9 0 0 0  6.518-1.223c1.492.645 3.171 1.223 4.482 1.223 0-1.29-.325-2.458-.75-3.473a13 9 0 0 0 2.75-5.527 13 9 0 0 0-3.014-5.75 11 3 0 0 0  1.014-1.25 11 3 0 0 0-11-3m0 1a9 2 0 0 1 9 2 9 2 0 0 1-9 2 9 2 0 0 1-9-2 9 2 0 0 1  9-2z" fill="#f06a62"/>
  <path d="m24.19 15c .122.299.371.628.809.998-.291-.366-.313-.691-.186-.99a11 3 0 0 0-.623-.008zm3.42.168c-.436.285-.799.588-1.08.912a9 2 0 0 1 2.773.305c.427-.262.891-.517 1.355-.771a11 3 0 0 0-3.049-.445zm.252 4.635a9 2 0 0 1-.082.008c.081.063.153.123.24.188-.061-.067-.106-.13-.158-.195z" opacity=".1"/>
  <path d="m27 10c .441 1.667-6.279 2.222-3 5-1.765-2.222 5.787-3 3-5zm5.01 0c .921 3-11.835 4-4.992 9-3.684-4 9.597-5 4.992-9z" fill="#9fbfaa"/>
</svg>

<svg xmlns="http://www.w3.org/2000/svg" viewBox="0 0 48 48">
 <defs>
  <linearGradient id="linearGradient3764" x1="1" x2="47" gradientUnits="userSpaceOnUse" gradientTransform="matrix(0,-1,1,0,-1.5e-6,47.999998)">
   <stop style="stop-color:#d0ecd7;stop-opacity:1"/>
   <stop offset="1" style="stop-color:#def2e3;stop-opacity:1"/>
  </linearGradient>
 </defs>
 <g>
  
  
  
 </g>
 <g>
  <path d="m 47,24 C 47,46.703 46.703,47 24,47 1.297,47 1,46.703 1,24 1,1.297 1.297,1 24,1 46.703,1 47,1.297 47,24 z" style="fill:url(#linearGradient3764);fill-opacity:1"/>
 </g>
 <g>
  
 </g>
 <path d="m 28 11 c 0.441 1.667 -6.279 2.222 -3 5 -1.765 -2.222 5.787 -3 3 -5 z m -3 5 a 11 3 0 0 0 -11 3 11 3 0 0 0 1.01 1.246 13 9 0 0 0 -3.01 5.754 13 9 0 0 0 2.75 5.52 c -0.424 1.017 -0.75 2.187 -0.75 3.48 c 1.312 0 2.995 -0.579 4.486 -1.225 a 13 9 0 0 0 6.514 1.225 13 9 0 0 0 6.518 -1.223 c 1.491 0.645 3.171 1.223 4.482 1.223 0 -1.29 -0.325 -2.458 -0.748 -3.473 a 13 9 0 0 0 2.748 -5.527 13 9 0 0 0 -3.01 -5.75 11 3 0 0 0 1.014 -1.25 11 3 0 0 0 -6.484 -2.732 c 2.587 -1.54 6.266 -2.863 3.498 -5.268 c 0.605 1.972 -4.678 3.085 -6.439 5.03 a 11 3 0 0 0 -1.574 -0.033 m 0 1 a 9 2 0 0 1 1.029 0.014 c -0.153 0.821 0.352 1.788 1.992 2.986 -1.066 -1.158 -0.692 -2.061 0.238 -2.861 a 9 2 0 0 1 5.74 1.861 a 9 2 0 0 1 -9 2 9 2 0 0 1 -9 -2 9 2 0 0 1 9 -2 z" style="fill:#000;opacity:0.1;fill-opacity:1;stroke:none"/>
 <path d="M 24 15 A 11 3 0 0 0 13 18 11 3 0 0 0 14.01 19.246 13 9 0 0 0 11 25 13 9 0 0 0 13.75 30.52 C 13.326 31.536 13 32.707 13 34 c 1.312 0 2.995 -0.579 4.486 -1.225 A 13 9 0 0 0 24 34 13 9 0 0 0 30.518 32.777 C 32.01 33.422 33.689 34 35 34 35 32.71 34.675 31.542 34.25 30.527 A 13 9 0 0 0 37 25 13 9 0 0 0 33.986 19.25 11 3 0 0 0 35 18 11 3 0 0 0 24 15 m 0 1 a 9 2 0 0 1 9 2 9 2 0 0 1 -9 2 9 2 0 0 1 -9 -2 9 2 0 0 1 9 -2 z" style="fill:#f06a62;opacity:1;fill-opacity:1;stroke:none"/>
 <path d="m 24.19 15 c 0.122 0.299 0.371 0.628 0.809 0.998 -0.291 -0.366 -0.313 -0.691 -0.186 -0.99 a 11 3 0 0 0 -0.623 -0.008 z m 3.42 0.168 c -0.436 0.285 -0.799 0.588 -1.08 0.912 a 9 2 0 0 1 2.773 0.305 c 0.427 -0.262 0.891 -0.517 1.355 -0.771 a 11 3 0 0 0 -3.049 -0.445 z m 0.252 4.635 a 9 2 0 0 1 -0.082 0.008 c 0.081 0.063 0.153 0.123 0.24 0.188 -0.061 -0.067 -0.106 -0.13 -0.158 -0.195 z" style="fill:#000;opacity:0.1;fill-opacity:1;stroke:none"/>
 <path d="m 27 10 c 0.441 1.667 -6.279 2.222 -3 5 -1.765 -2.222 5.787 -3 3 -5 z m 5.01 0 c 0.921 3 -11.835 4 -4.992 9 -3.684 -4 9.597 -5 4.992 -9 z" style="fill:#9fbfaa;opacity:1;fill-opacity:1;stroke:none"/>
</svg>
